X:15
T:Flowing Tide, The
R:hornpipe
D:Oisin: Over the Moor to Maggie
Z:id:hn-hornpipe-15
M:C|
K:G
(3DEF|:GFGB dGBd|GBdg bgag|(3efg de Bdge|dBAG edBA|
~G3B dGBd|GBdg bgag|(3efg de Bdge|1dBAB G2GF:|2dBAB G2|
|:(3DEF|GFGB AGED|~g3e dBAG|ceBd ABGB|cABG AGEG|
DG(3Bcd B2dB|(3cBA (3BAG AG(3EFG|DGBd gdBG|DAFA G2:|
